azure-icons/migrate-281-Azure-Migrate.svg

<svg xmlns="http://www.w3.org/2000/svg" width="18" height="18"><defs><linearGradient id="a" x1="10.75" y1="13.54" x2="10.75" y2="2.92" gradientUnits="userSpaceOnUse"><stop offset="0" stop-color="#0078d4"/><stop offset=".16" stop-color="#1380da"/><stop offset=".53" stop-color="#3c91e5"/><stop offset=".82" stop-color="#559cec"/><stop offset="1" stop-color="#5ea0ef"/></linearGradient><linearGradient id="b" x1="7.45" y1="17.24" x2="7.45" y2="1.19" gradientUnits="userSpaceOnUse"><stop offset="0" stop-color="#198ab3"/><stop offset="0" stop-color="#198ab3"/><stop offset=".11" stop-color="#22a5cb"/><stop offset=".23" stop-color="#29bade"/><stop offset=".37" stop-color="#2ec9eb"/><stop offset=".53" stop-color="#31d1f3"/><stop offset=".78" stop-color="#32d4f5"/></linearGradient></defs><path d="M18 10.53a3.26 3.26 0 00-2.83-3.13 4.11 4.11 0 00-4.23-3.93 4.22 4.22 0 00-4 2.75A3.89 3.89 0 003.5 10a4 4 0 004.08 3.79h7.18A3.29 3.29 0 0018 10.53z" fill="url(#a)"/><path d="M14.9 11.22A3.35 3.35 0 0012 8a4.21 4.21 0 00-4.35-4 4.33 4.33 0 00-4.14 2.79A4 4 0 000 10.63a4.06 4.06 0 004.2 3.9h7.34a3.38 3.38 0 003.36-3.31z" fill="url(#b)"/><path d="M4.82 9.37h.85a.23.23 0 01.17.07l2 2a.24.24 0 010 .35l-2.72 2.67a.24.24 0 01-.17.07h-.81a.25.25 0 01-.14-.42l2.31-2.34a.23.23 0 000-.34L4.65 9.78a.24.24 0 01.17-.41zM8.25 6h.87a.25.25 0 01.17.08l1.53 1.55a.24.24 0 010 .34l-2 1.91a.24.24 0 01-.17.07h-.73a.25.25 0 01-.18-.41L9.27 8a.25.25 0 000-.34l-1.19-1.2A.24.24 0 018.25 6zm1.79 4h.85a.28.28 0 01.17.07l1.25 1.25a.25.25 0 010 .34l-1.81 1.83a.23.23 0 01-.17.07h-.82a.24.24 0 01-.17-.41l1.42-1.44a.25.25 0 000-.34l-.89-.91a.24.24 0 01.13-.41z" fill="#fff"/></svg>

<svg id="a2071c0a-6e62-4699-8e32-285f1bc1e420" xmlns="http://www.w3.org/2000/svg"  width="18" height="18" viewBox="0 0 18 18"><defs><linearGradient id="a89be84a-3752-4123-adee-32901ecefd3d" x1="10.75" y1="13.54" x2="10.75" y2="2.92" gradientUnits="userSpaceOnUse"><stop offset="0" stop-color="#0078d4"/><stop offset="0.16" stop-color="#1380da"/><stop offset="0.53" stop-color="#3c91e5"/><stop offset="0.82" stop-color="#559cec"/><stop offset="1" stop-color="#5ea0ef"/></linearGradient><linearGradient id="a2f994c2-8580-44cf-92d2-32655328fefe" x1="7.45" y1="17.24" x2="7.45" y2="1.19" gradientUnits="userSpaceOnUse"><stop offset="0" stop-color="#198ab3"/><stop offset="0" stop-color="#198ab3"/><stop offset="0.11" stop-color="#22a5cb"/><stop offset="0.23" stop-color="#29bade"/><stop offset="0.37" stop-color="#2ec9eb"/><stop offset="0.53" stop-color="#31d1f3"/><stop offset="0.78" stop-color="#32d4f5"/></linearGradient></defs><title>Icon-migrate-281</title><path d="M18,10.53A3.26,3.26,0,0,0,15.17,7.4a4.11,4.11,0,0,0-4.23-3.93,4.22,4.22,0,0,0-4,2.75A3.89,3.89,0,0,0,3.5,10a4,4,0,0,0,4.08,3.79h7l.18,0A3.29,3.29,0,0,0,18,10.53Z" fill="url(#a89be84a-3752-4123-adee-32901ecefd3d)"/><path d="M14.9,11.22A3.35,3.35,0,0,0,12,8,4.21,4.21,0,0,0,7.65,4,4.33,4.33,0,0,0,3.51,6.79,4,4,0,0,0,0,10.63a4.06,4.06,0,0,0,4.2,3.9l.37,0h6.79l.18,0A3.38,3.38,0,0,0,14.9,11.22Z" fill="url(#a2f994c2-8580-44cf-92d2-32655328fefe)"/><g id="b1b7ddb8-8ec2-480f-967f-c2bf89d2fe16"><path d="M4.82,9.37h.85a.23.23,0,0,1,.17.07l2,2a.24.24,0,0,1,0,.35L5.12,14.46a.24.24,0,0,1-.17.07H4.14A.25.25,0,0,1,4,14.11l2.31-2.34a.23.23,0,0,0,0-.34L4.65,9.78A.24.24,0,0,1,4.82,9.37ZM8.25,6h.87a.25.25,0,0,1,.17.08l1.53,1.55a.24.24,0,0,1,0,.34l-2,1.91a.24.24,0,0,1-.17.07H7.92a.25.25,0,0,1-.18-.41L9.27,8a.25.25,0,0,0,0-.34L8.08,6.46A.24.24,0,0,1,8.25,6Zm1.79,4h.85a.28.28,0,0,1,.17.07l1.25,1.25a.25.25,0,0,1,0,.34L10.5,13.49a.23.23,0,0,1-.17.07H9.51a.24.24,0,0,1-.17-.41l1.42-1.44a.25.25,0,0,0,0-.34l-.89-.91A.24.24,0,0,1,10,10.05Z" fill="#fff"/></g></svg>
